build/category/BranchesSolid.svg

<svg xmlns="http://www.w3.org/2000/svg" fill="none" viewBox="0 0 24 24" focusable="false"><path d="M0 0H24V24H0z"/><path fill="#74767B" d="M9 6C9 7.43494 7.99256 8.63458 6.64639 8.93019C6.64884 8.95312 6.6501 8.97642 6.6501 9.00001L6.6501 15.0706C7.79216 15.3229 8.68977 16.2261 8.93399 17.3712L14.9999 17.3712C16.2978 17.3712 17.3499 16.3191 17.3499 15.0212L17.3499 14.9294C16.0056 14.6324 15 13.4336 15 12C15 10.3431 16.3431 9 18 9C19.6569 9 21 10.3431 21 12C21 13.4337 19.9943 14.6325 18.6499 14.9294L18.6499 15.0212C18.6499 17.037 17.0157 18.6712 14.9999 18.6712L8.92463 18.6712C8.61981 20.0049 7.42611 21 6 21C4.34315 21 3 19.6569 3 18C3 16.5663 4.00569 15.3675 5.3501 15.0706L5.3501 9.00001C5.3501 8.97643 5.35135 8.95315 5.3538 8.93023C4.00754 8.63469 3 7.43501 3 6C3 4.34315 4.34315 3 6 3C7.65685 3 9 4.34315 9 6Z"/></svg>

<svg xmlns="http://www.w3.org/2000/svg" fill="none" viewBox="0 0 24 24" focusable="false"><path fill="#74767B" d="M9 6a3.01 3.01 0 0 1-2.36 2.93c0 .02.01.04.01.07v6.07a3 3 0 0 1 2.28 2.3H15c1.29 0 2.34-1.06 2.34-2.35v-.1A2.984 2.984 0 0 1 15 12c0-1.66 1.34-3 3-3 1.65 0 3 1.34 3 3a2.99 2.99 0 0 1-2.36 2.92v.1c0 2.01-1.63 3.65-3.64 3.65H8.92A3.01 3.01 0 0 1 6 21c-1.66 0-3-1.35-3-3 0-1.44 1-2.64 2.35-2.93V8.93A3.002 3.002 0 0 1 6 3c1.65 0 3 1.34 3 3"/></svg>
